X:1
T:Frank Gardiner
M:6/8
L:1/4
K:G
 G A/2| B B/2 G B/2| A G/2 E E/2| D E/2 G G/2| G3/2 z d/2| e d/2| g f/2|\
 e e/2 d e/2| B A/2 G A/2| E3/2 z d/2| e d/2 g f/2| e e/2| d e/2| B A/2 G A/2|\
 E3/2 G A/2| B B/2 G B/2| A G/2 E E/2| D E/2| G G/2| G3/2||
